Newaita/actions/22/fork.svg

<svg height="22" viewBox="0 0 22 22" width="22" xmlns="http://www.w3.org/2000/svg"><g fill="#424242"><path d="m5.457031 1.996094c-1.007812 0-1.820312.8125-1.820312 1.820312v14.550782c0 1.007812.8125 1.820312 1.820312 1.820312h5.457031v-1.820312h-4.546874c-.503907 0-.910157-.40625-.910157-.910157v-12.734375c0-.503906.40625-.90625.910157-.90625h3.636718v-.007812h3.265625l3.105469 3.109375v3.265625h-.003906v.449218h1.820312v-.449218h-.003906v-3.640625c0-.238281-.09375-.46875-.265625-.640625l-3.636719-3.636719c-.171875-.171875-.402344-.265625-.640625-.265625h-3.640625v-.003906zm0 0"/><path d="m17.375 12.433594c-.113281.003906-.222656.042968-.308594.121094l-4.09375 3.636718c-.324218.289063-.121094.824219.3125.824219h1.359375l-1.742187 2.4375c-.308594.4375.226562.96875.660156.65625l5.003906-3.636719c.367188-.269531.179688-.855468-.277344-.855468h-1.917968l1.417968-2.476563c.179688-.316406-.050781-.710937-.414062-.707031zm0 0"/></g></svg>

<?xml version="1.0" encoding="UTF-8"?>
<svg xmlns="http://www.w3.org/2000/svg" xmlns:xlink="http://www.w3.org/1999/xlink" width="22px" height="22px" viewBox="0 0 22 22" version="1.1">
<g id="surface1">
<path style=" stroke:none;fill-rule:nonzero;fill:rgb(25.882354%,25.882354%,25.882354%);fill-opacity:1;" d="M 5.457031 1.996094 C 4.449219 1.996094 3.636719 2.808594 3.636719 3.816406 L 3.636719 18.367188 C 3.636719 19.375 4.449219 20.1875 5.457031 20.1875 L 10.914062 20.1875 L 10.914062 18.367188 L 6.367188 18.367188 C 5.863281 18.367188 5.457031 17.960938 5.457031 17.457031 L 5.457031 4.722656 C 5.457031 4.21875 5.863281 3.816406 6.367188 3.816406 L 10.003906 3.816406 L 10.003906 3.808594 L 13.269531 3.808594 L 16.375 6.917969 L 16.375 10.183594 L 16.371094 10.183594 L 16.371094 10.632812 L 18.191406 10.632812 L 18.191406 10.183594 L 18.1875 10.183594 L 18.1875 6.542969 C 18.1875 6.304688 18.09375 6.074219 17.921875 5.902344 L 14.285156 2.265625 C 14.113281 2.09375 13.882812 2 13.644531 2 L 10.003906 2 L 10.003906 1.996094 Z M 5.457031 1.996094 "/>
<path style=" stroke:none;fill-rule:nonzero;fill:rgb(25.882354%,25.882354%,25.882354%);fill-opacity:1;" d="M 17.375 12.433594 C 17.261719 12.4375 17.152344 12.476562 17.066406 12.554688 L 12.972656 16.191406 C 12.648438 16.480469 12.851562 17.015625 13.285156 17.015625 L 14.644531 17.015625 L 12.902344 19.453125 C 12.59375 19.890625 13.128906 20.421875 13.5625 20.109375 L 18.566406 16.472656 C 18.933594 16.203125 18.746094 15.617188 18.289062 15.617188 L 16.371094 15.617188 L 17.789062 13.140625 C 17.96875 12.824219 17.738281 12.429688 17.375 12.433594 Z M 17.375 12.433594 "/>
</g>
</svg>
